Sources/FrostedUI/Resources/Icons.xcassets/linkAdd12.imageset/link-add-12.svg

<svg width="12" height="12" viewBox="0 0 12 12" fill="none" xmlns="http://www.w3.org/2000/svg" data-fui-icon="true">
  <path
    d="M2.18848 4.50098C2.48137 4.20808 2.95613 4.20808 3.24902 4.50098C3.54192 4.79387 3.54192 5.26863 3.24902 5.56152L2.16016 6.65039C1.73742 7.07329 1.5 7.64715 1.5 8.24512C1.50017 9.49038 2.50962 10.4998 3.75488 10.5C4.35285 10.5 4.92671 10.2626 5.34961 9.83984L6.43848 8.75098C6.73137 8.45808 7.20613 8.45808 7.49902 8.75098C7.79192 9.04387 7.79192 9.51863 7.49902 9.81152L6.41016 10.9004C5.70595 11.6044 4.75067 12 3.75488 12C1.6812 11.9998 0.000173156 10.3188 0 8.24512C0 7.24933 0.395573 6.29405 1.09961 5.58984L2.18848 4.50098ZM10 8C10.4142 8 10.75 8.33579 10.75 8.75V9.25H11.25C11.6642 9.25 12 9.58579 12 10C12 10.4142 11.6642 10.75 11.25 10.75H10.75V11.25C10.75 11.6642 10.4142 12 10 12C9.58579 12 9.25 11.6642 9.25 11.25V10.75H8.75C8.33579 10.75 8 10.4142 8 10C8 9.58579 8.33579 9.25 8.75 9.25H9.25V8.75C9.25 8.33579 9.58579 8 10 8ZM6.71973 4.21973C7.01262 3.92683 7.48738 3.92683 7.78027 4.21973C8.07317 4.51262 8.07317 4.98738 7.78027 5.28027L5.28027 7.78027C4.98738 8.07317 4.51262 8.07317 4.21973 7.78027C3.92683 7.48738 3.92683 7.01262 4.21973 6.71973L6.71973 4.21973ZM8.24512 0C10.3188 0.000173156 11.9998 1.6812 12 3.75488C12 4.75067 11.6044 5.70595 10.9004 6.41016L9.81152 7.49902C9.51863 7.79192 9.04387 7.79192 8.75098 7.49902C8.45808 7.20613 8.45808 6.73137 8.75098 6.43848L9.83984 5.34961C10.2626 4.92671 10.5 4.35285 10.5 3.75488C10.4998 2.50962 9.49038 1.50017 8.24512 1.5C7.64715 1.5 7.07329 1.73742 6.65039 2.16016L5.56152 3.24902C5.26863 3.54192 4.79387 3.54192 4.50098 3.24902C4.20808 2.95613 4.20808 2.48137 4.50098 2.18848L5.58984 1.09961C6.29405 0.395573 7.24933 0 8.24512 0Z"
    fill="currentColor"
  />
</svg>

<svg xmlns="http://www.w3.org/2000/svg" width="12" height="12" fill="none" data-fui-icon="true" viewBox="0 0 12 12"><path fill="currentColor" d="M2.188 4.501a.75.75 0 1 1 1.061 1.06L2.16 6.652A2.256 2.256 0 0 0 5.35 9.84L6.438 8.75A.75.75 0 1 1 7.5 9.811l-1.089 1.09A3.756 3.756 0 0 1 1.1 5.59zM10 8a.75.75 0 0 1 .75.75v.5h.5a.75.75 0 0 1 0 1.5h-.5v.5a.75.75 0 0 1-1.5 0v-.5h-.5a.75.75 0 0 1 0-1.5h.5v-.5A.75.75 0 0 1 10 8M6.72 4.22a.75.75 0 1 1 1.06 1.06l-2.5 2.5a.75.75 0 1 1-1.06-1.06zM8.245 0A3.755 3.755 0 0 1 10.9 6.41L9.812 7.5a.75.75 0 1 1-1.061-1.06l1.089-1.09A2.256 2.256 0 0 0 6.65 2.16L5.562 3.25A.75.75 0 1 1 4.5 2.189l1.089-1.09A3.76 3.76 0 0 1 8.245 0"/></svg>
